X: 598
%
U:~=!turn!
T: The Swallow
C:
O:Scotland
B:Keith Norman MacDonald : "The Skye collection of the best reels & strathspeys extant" : 1887
Z:Ralph Palmer
R:Reel
M:C
L:1/8
K:D
A | FDFA d2 df | d2 df eEEG | FD (F/G/A) d2 dg | faef dDD :|
g | fdfg aeeg fdgf eBBg | fdfg aeeg | fdec dDDg |
fdfg aeeg | gdgf eBBg | fdge afbg | (f/g/a) df dD D |]


